!!!!SEGMENT: pl-sa--400-a-viii-40--001-002_pugnani-gaetano--trio-in-a-largo.krn
!!!cenid: 17xx:2022
!!!COM: Pugnani, Gaetano
!!!COM-rismid: pe30002608
!!!CDT: 1731/11/27-1798/07/15
!!!CNT: Italian
!!!OPR: Trio in A
!!!OTL: Largo
!!!OMV: 002
!!!PDT:
!!!AGN: Secular
!!!SMS-siglum: PL-SA
!!!SMS-shelfmark: 400/A VIII 40
!!!SMS-shelfwork: 001-002 M
!!!SMS-variant:
!!!SMS-altvar:
!!!NIFC-rismid: 1001104646
!!!URL-scan: http://bc.bdsandomierz.pl/dlibra/publication/1703/edition/1671/content
!!!ONB-nifc: UWAGA: pierwsze Trio. Części: 1. Allegro non tanto, 2. Largo, 3. Allegro
**kern	**kern	**dynam	**kern	**dynam
*part3	*part2	*part2	*part1	*part1
*staff3	*staff2	*	*staff1	*
*I"Baſso.	*I"Violino 2do	*	*I"Violino 1mo	*
*I'b	*I'vl 2	*	*I'vl 1	*
*	*clefG2	*	*clefG2	*
*	*k[f#c#g#]	*	*k[f#c#g#]	*
*	*D:	*	*D:	*
*	*M2/2	*	*M2/2	*
*	*met(c|)	*	*met(c|)	*
=1	=1	=1	=1	=1
!LO:TX:t=P:problem:zgodnie z RISM "b part missing"	!LO:TX:t=P:problem:błędnie wpisane znaki przykluczowe [f#c#g#]	!	!LO:TX:t=P:problem:błędnie wpisane znaki przykluczowe [f#c#g#]	!
!	!LO:TX:a:i:t=Cantabile adagio.	!	!LO:TX:a:i:t=Largo	!
1ryy	4r	.	4dd\	.
.	4d/	.	4aa\	.
!	!	!LO:DY:a:t=p.	!	!
.	4f#/	p	8aa\L	.
.	.	.	8ff#\	.
.	4g#/	.	8ee\	.
.	.	.	8dd\J	.
=2	=2	=2	=2	=2
.	.	.	8qqee/	.
1ryy	4a/	.	4dd\	.
.	4a/	.	4cc#\	.
.	4a/	.	16cc#\LL	.
.	.	.	16dd\	.
.	.	.	16ee\	.
.	.	.	16ff#\JJ	.
.	.	.	8qqaa/	.
!	!	!	!LO:SIC:v:s=8ggn\L	!
.	4a/	.	8gg#\L	.
.	.	.	8qqff#/	.
.	.	.	8ee\J	.
=3	=3	=3	=3	=3
.	.	.	8qqff#/	.
1ryy	4f#/	.	4ee\	.
.	4f#/	.	4dd\	.
.	4f#/	.	16dd\LL	.
.	.	.	16ff#\	.
.	.	.	16ff#\	.
.	.	.	16aa\JJ	.
.	4f#/	.	16aa\LL	.
!	!	!	!LO:SIC:v:s=16ggn\	!
.	.	.	16gg#\	.
!	!	!	!LO:SIC:v:s=16ggn\	!
.	.	.	16gg#\	.
.	.	.	16ff#\JJ	.
=4	=4	=4	=4	=4
1ryy	4c#/	.	(16ff#\LL	.
.	.	.	16dd#X\)	.
.	.	.	(16dd#\	.
.	.	.	16ee\JJ)	.
.	4c#/	.	4ee\	.
.	4c#/	.	16ee\LL	.
.	.	.	16ff#\	.
!	!	!	!LO:SIC:v:s=16ggn\	!
.	.	.	16gg#\	.
.	.	.	16aa\JJ	.
.	4c#/	.	8bb\L	.
!	!	!	!LO:SIC:v:s=8ggn\J	!
.	.	.	8gg#\J	.
=5	=5	=5	=5	=5
!	!	!LO:DY:a:t=for	!	!
1ryy	4d/	f	4ff#\	.
.	4aa\	.	4d/	.
!	!	!	!	!LO:DY:a:t=p&colon;
.	(8aa\L	.	4f#/	p
.	8ff#\	.	.	.
!	!	!	!LO:SIC:v:s=4gn/	!
.	8ee\	.	4g#/	.
.	8dd\J)	.	.	.
=6	=6	=6	=6	=6
1ryy	4dd\	.	4a/	.
.	4cc#\	.	4a/	.
.	16cc#\LL	.	4a/	.
.	16dd\	.	.	.
.	16ee\	.	.	.
.	16ff#\JJ	.	.	.
.	8qqaa/	.	.	.
!	!LO:SIC:v:s=8ggn\L	!	!	!
.	8gg#\L	.	4a/	.
.	8qqff#/	.	.	.
.	8ee\J	.	.	.
=7	=7	=7	=7	=7
*	*	*	*^	*
1ryy	8ee\L	.	4a/	4f#\	.
.	16cc#\L	.	.	.	.
.	16dd\JJ	.	.	.	.
.	4dd\	.	4a/	4f#\	.
.	16dd\LL	.	4a/	4f#\	.
.	16ee\	.	.	.	.
.	16ff#\	.	.	.	.
!	!LO:SIC:v:s=16ggn\JJ	!	!	!	!
.	16gg#\JJ	.	.	.	.
!	!LO:SIC:v:s=8qqggn/	!	!	!	!
.	8qqgg#/	.	.	.	.
.	8aa\L	.	4a/	4f#\	.
!	!LO:SIC:v:s=8qqggn/J	!	!	!	!
.	8qqgg#/	.	.	.	.
.	8ff#\J	.	.	.	.
!	!	!	!LO:LB:g=original	!	!
=8	=8	=8	=8	=8	=8
*	*	*	*k[f#c#]	*	*
!	!	!	!LO:TX:t=P:problem:przy kluczu [f#c#]	!	!
1ryy	8ee\	.	4b/	4g\	.
!	!LO:SIC:v:s=4ggn\	!	!	!	!
.	4gg#\	.	.	.	.
.	.	.	4b/	4g\	.
.	8bb\	.	.	.	.
.	(16bb\LL	.	4b/	4g\	.
.	16aa\)	.	.	.	.
!	!LO:SIC:v:s=(16ggn\	!	!	!	!
.	(16gg#\	.	.	.	.
.	16ff#\JJ)	.	.	.	.
.	(16ff#\LL	.	4b/	4g\	.
.	16ee\)	.	.	.	.
.	(16ee\	.	.	.	.
.	16dd\JJ)	.	.	.	.
*	*	*	*v	*v	*
!	!LO:LB:g=original	!	!	!
=9	=9	=9	=9	=9
*	*k[f#c#]	*	*	*
!	!LO:TX:t=P:problem:błędnie wpisane znaki przykluczowe: [e#f#]	!	!	!
1ryy	4cc#\	.	4a\	.
.	4cc#\	.	4ee\	.
.	16cc#\LL	.	16ee\LL|	.
.	(16cc#\	.	(16ee\	.
.	8qqcc#/	.	8qqee/	.
.	16b\	.	16dd\	.
.	16a\JJ)	.	16cc#\JJ)	.
.	16b\LL|	.	16dd\LL|	.
.	(16b\	.	(16dd\	.
.	8qqb/	.	8qqdd/	.
.	16a\	.	16cc#\	.
.	16g#X\JJ)	.	16b\JJ)	.
=10	=10	=10	=10	=10
1ryy	8a\L	.	8cc#\L	.
!	!	!	!LO:N:vis=32	!
.	16dd\L	.	16ff#\L	.
!	!	!	!LO:N:vis=32	!
.	16cc#\JJ	.	16ee\JJ	.
.	4cc#\	.	4ee\	.
.	16cc#\LL|	.	16ee\LL|	.
.	(16cc#\	.	(16ee\	.
.	16b\	.	16dd\	.
.	16a\JJ)	.	16cc#\JJ)	.
.	16b\LL	.	16dd\LL|	.
.	(16b\	.	(16dd\	.
.	16a\	.	16cc#\	.
.	16g#X\JJ)	.	16b\JJ)	.
=11	=11	=11	=11	=11
1ryy	4A/|	.	8cc#\L	.
.	.	.	8aa\J	.
.	4B/|	.	(8gg#X\L	.
.	.	.	8bb\J)	.
.	4c#/|	.	16aa\LL	.
.	.	.	16ee\J	.
.	.	.	8ee\J	.
.	4d/|	.	8ff#\L	.
.	.	.	8dd\J	.
=12	=12	=12	=12	=12
1ryy	8e/L	.	4.e/	.
.	8e/	.	.	.
.	8e/	.	.	.
.	8e/J	.	(32f#/LLL	.
.	.	.	32g#X/	.
.	.	.	32a/	.
.	.	.	32b/JJJ)	.
*	*	*	*2\right	*
!	!	!	!LO:TX:t=P:problem:niejednoznaczny zapis ozdobnika [przyjęto tryl]:global	!
.	8e/L	.	2bT\	.
.	8e/	.	.	.
.	8e/	.	.	.
.	8e/J	.	.	.
=13	=13	=13	=13	=13
1ryy	8A/	.	8a/	.
.	8qdd/	.	8qdd/	.
!	!	!	!LO:N:vis=16.	!
.	16cc#\LL	.	16ee\LL	.
.	32b\L	.	32dd\L	.
.	32cc#\JJJ	.	32ee\JJJ	.
.	8dd\|	.	8ff#\	.
.	8qqcc#/	.	8qdd/	.
!	!	!	!LO:N:vis=16.	!
.	16b\LL	.	16dd\LL	.
.	32a\L	.	32cc#\L	.
.	32b\JJJ	.	32dd\JJJ	.
!	!LO:TX:t=P:problem:kreska taktowa pojedyncza	!	!	!
.	8cc#\|	.	8ee\	.
.	8qqb/	.	8qdd/	.
!	!	!	!LO:N:vis=16.	!
.	16a\LL	.	16cc#\LL	.
.	32g#X\L	.	32b\L	.
.	32a\JJJ	.	32cc#\JJJ	.
!	!	!	!LO:LB:g=original	!
!	!	!	!LO:TX:t=P:problem:błędnie wpisane znaki przykluczowe [f#c#g#]	!
.	8b\|	.	8dd\	.
.	8qqa/	.	8qb/	.
!	!	!	!LO:N:vis=16.	!
.	16g#X/LL	.	16b\LL	.
.	32f#/L	.	(32a\L	.
.	32g#/JJJ	.	32b\JJJ)	.
=14	=14	=14	=14	=14
*	*	*	*k[f#c#g#]	*
1ryy	16.a\LL	.	(16.cc#\LL	.
.	32cc#\JK	.	32ee\JK)	.
!	!LO:TX:t=P:problem:niejednoznaczny zapis ozdobnika [przyjęto tryl]:global	!	!	!
.	8cc#t\J	.	8eeT\J	.
.	16dd\LL	.	16.ff#\LL	.
.	16b\J	.	.	.
.	.	.	32dd\JK	.
.	8bT\J	.	8ddT\J	.
!	!LO:LB:g=original	!	!	!
!	!LO:TX:t=P:problem:mixed beam	!	!LO:TX:t=P:problem:mixed beam	!
.	8a\L	.	8ee\L	.
.	8c#/	.	16.aa\L	.
.	.	.	32a/JJk	.
.	8d/	.	4bT\	.
.	8e/J	.	.	.
=15	=15	=15	=15	=15
1ryy	4A|/	.	1a	.
.	8.a/L	.	.	.
.	16g#X/Jk	.	.	.
.	4f#/	.	.	.
.	4e/	.	.	.
=16	=16	=16	=16	=16
1ryy	4d#X/	.	16a\LL	.
.	.	.	16cc#\	.
.	.	.	8qcc#/	.
.	.	.	16b\	.
.	.	.	16a\JJ	.
.	4d#/	.	16a\LL	.
.	.	.	16cc#\	.
.	.	.	8qcc#/	.
.	.	.	16b\	.
.	.	.	16a\JJ	.
!	!	!	!LO:TX:t=P:problem:mixed beam	!
.	4B/	.	8dd#X\L	.
.	.	.	8ee\	.
.	4B/	.	8.ff#\	.
.	.	.	16a/Jk	.
=17	=17	=17	=17	=17
.	.	.	8qqa/	.
!	!	!	!LO:SIC:v:s=4gn/	!
1ryy	4e/	.	4g#/	.
!	!	!	!LO:SIC:v:s=2gn/	!
.	8.e/L	.	2g#/	.
.	16f#/Jk	.	.	.
.	4e/	.	.	.
!	!	!	!LO:SIC:v:s=4gn/	!
.	4d/	.	4g#/	.
=18	=18	=18	=18	=18
!	!	!	!LO:SIC:v:s=8gn\L	!
1ryy	4c#/	.	8g#\L	.
.	.	.	8cc#\	.
.	4c#/	.	8ee\	.
!	!	!	!LO:SIC:v:s=8ggn\J	!
.	.	.	8gg#\J	.
.	.	.	8qqaa/	.
!	!	!	!LO:SIC:v:s=16ggn\LL	!
.	4A/	.	16gg#\LL	.
.	.	.	16ff#\	.
.	.	.	16ee\	.
.	.	.	16dd\JJ	.
.	.	.	8qdd/	.
.	4A/	.	16cc#\LL	.
.	.	.	16b\	.
.	.	.	16a\	.
!	!	!	!LO:SIC:v:s=16gn\JJ	!
.	.	.	16g#\JJ	.
=19	=19	=19	=19	=19
!	!LO:TX:t=P:problem:mixed beam	!	!LO:TX:t=P:problem:mixed beam	!
1ryy	8d/L	.	8f#/L	.
.	(16ff#\L	.	16aa\L	.
.	16gg\JJ)	.	16bb\JJ	.
.	8ff#\L	.	8aa\L	.
.	(16ff#\L	.	16aa\L	.
.	16gg\JJ)	.	16bb\JJ	.
.	8ff#\L	.	8aa\L	.
!	!	!	!LO:SIC:v:s=8ggn\	!
.	8ee\	.	8gg#\	.
.	8qqff#/	.	8qqaa/	.
!	!	!	!LO:SIC:v:s=8ggn\	!
.	8ee\	.	8gg#\	.
.	8dd\J	.	8ff#\J	.
!	!	!	!LO:LB:g=original	!
=20	=20	=20	=20	=20
*	*	*	*k[f#c#]	*
*	*	*	*^	*
!	!	!	!LO:TX:t=P:problem:przy kluczu [f#c#]	!	!
1ryy	16cc#\LL	.	16ee/LL	4a\	.
.	16ee\	.	16gg/	.	.
.	16dd\	.	16ff#/	.	.
.	16ff#\JJ	.	16aa/JJ	.	.
.	8qqff#/	.	.	.	.
.	4ee\	.	4gg/	4a\	.
.	16dd\LL	.	16ff#/LL	4a\	.
.	16ee\	.	16gg/	.	.
.	16ee\	.	16gg/	.	.
.	16ff#\JJ	.	16aa/JJ	.	.
.	16ff#\LL	.	16aa/LL	4a\	.
.	[16ee\	.	16gg/	.	.
.	16ee\]	.	16gg/	.	.
.	16dd\JJ	.	16ff#/JJ	.	.
=21	=21	=21	=21	=21	=21
1ryy	16cc#\LL	.	16ee/LL	4a\	.
.	16ee\	.	16gg/	.	.
.	16dd\	.	16ff#/	.	.
.	16ff#\JJ	.	16aa/JJ	.	.
.	8qqff#/	.	8qqaa/	.	.
.	4ee\	.	4gg/	4a\	.
.	16dd\LL	.	16ff#/LL	4a\	.
.	16ee\	.	16gg/	.	.
.	16ee\	.	16gg/	.	.
.	16ff#\JJ	.	16aa/JJ	.	.
.	(16ff#\LL	.	16aa/LL	4a\	.
.	16ee\	.	16gg/	.	.
.	16ee\	.	16gg/	.	.
.	16dd\JJ)	.	16ff#/JJ	.	.
=22	=22	=22	=22	=22	=22
1ryy	4dd\	.	4ff#/	4a\	.
.	4cc#m\	.	4ee/	4a\	.
!	!LO:LB:g=original	!	!	!	!
.	8a/L	.	8r	2ryy	.
.	8g/	.	8b/L	.	.
.	8f#/	.	8a/	.	.
.	8e/J	.	8g/J	.	.
*	*	*	*v	*v	*
=23	=23	=23	=23	=23
1ryy	4d/	.	4f#/	.
.	4d/	.	4aa\	.
.	4f#/	.	8aa\L	.
.	.	.	8ff#\	.
.	4g/	.	8ee\	.
.	.	.	8dd\J	.
=24	=24	=24	=24	=24
.	.	.	8qqee/	.
1ryy	4a/	.	4dd\	.
.	4a/	.	4cc#\	.
.	4a/	.	16cc#\LL	.
.	.	.	16dd\	.
.	.	.	16ee\	.
.	.	.	16ff#\JJ	.
.	.	.	8qaa/	.
.	4a/	.	8.gg\L	.
.	.	.	8qff#/	.
.	.	.	16ee\Jk	.
=25	=25	=25	=25	=25
1ryy	4f#/	.	4dd\	.
.	4aa\	.	4d/	.
.	8aa\L	.	4f#/	.
.	8ff#\	.	.	.
.	8ee\	.	4g/	.
.	8dd\J	.	.	.
=26	=26	=26	=26	=26
1ryy	4dd\	.	4a/	.
.	4cc#\	.	4a/	.
.	16cc#\LL	.	4a/	.
.	16dd\	.	.	.
.	16ee\	.	.	.
.	16ff#\JJ	.	.	.
.	8qqgg/	.	.	.
.	8gg\L	.	4a/	.
.	8qqff#/	.	.	.
.	8ee\J	.	.	.
!	!	!	!LO:LB:g=original	!
=27	=27	=27	=27	=27
!	!	!	!LO:TX:t=P:problem:mixed beam	!
1ryy	8dd\L	.	16d/LL	.
.	.	.	16bb\J	.
.	16gg\L	.	8aa\J	.
.	16ff#\JJ	.	.	.
.	4ff#\	.	4aa\	.
.	16ff#\LL|	.	16aa\LL|	.
.	(16ff#\	.	(16aa\	.
.	.	.	8qqaa/	.
.	16ee\	.	16gg\	.
.	16dd\JJ)	.	16ff#\JJ)	.
.	16ee\LL|	.	16gg\LL|	.
.	(16ee\	.	(16gg\	.
.	.	.	8qgg/	.
.	16dd\	.	16ff#\	.
.	16cc#\JJ)	.	16ee\JJ)	.
=28	=28	=28	=28	=28
1ryy	8dd\L	.	8ff#\L	.
.	16gg\L	.	16bb\L	.
.	16ff#\JJ	.	16aa\JJ	.
.	4ff#\	.	4aa\	.
.	16ff#\LL|	.	16aa\LL|	.
.	(16ff#\	.	(16aa\	.
.	.	.	8qaa/	.
.	16ee\	.	16gg\	.
.	16dd\JJ)	.	16ff#\JJ)	.
.	16ee\LL|	.	16gg\LL|	.
.	(16ee\	.	(16gg\	.
.	16dd\	.	16ff#\	.
.	16cc#\JJ)	.	16ee\JJ)	.
=29	=29	=29	=29	=29
1ryy	4d/|	.	8ff#\L	.
.	.	.	8dd\	.
.	4e/|	.	8cc#\	.
.	.	.	8ee\J	.
.	4f#/|	.	8dd\L	.
.	.	.	8a\	.
.	4g/|	.	8b\	.
.	.	.	8gg\J	.
=30	=30	=30	=30	=30
1ryy	4a/	.	4a/	.
!	!	!	!LO:N:vis=32	!
.	4a/	.	(16a/LL	.
!	!	!	!LO:N:vis=32	!
.	.	.	16b/	.
!	!	!	!LO:N:vis=32	!
.	.	.	16cc#/	.
!	!	!	!LO:N:vis=32	!
.	.	.	16dd/JJ)	.
.	4a/	.	2eeT\	.
.	4a/	.	.	.
!	!LO:LB:g=original	!	!	!
=31	=31	=31	=31	=31
1ryy	8d/	.	8dd\	.
.	8qqgg/	.	.	.
.	(16ff#\LL	.	16aa\LL	.
.	32ee\L	.	32gg\L	.
.	32ff#\JJJ)	.	32aa\JJJ	.
.	8gg\	.	8bb\	.
.	8qqff#/	.	8qqaa/	.
.	(16ee\LL	.	16gg\LL	.
.	32dd\L	.	32ff#\L	.
.	32ee\JJJ)	.	32gg\JJJ	.
.	8ff#\	.	8aa\	.
.	.	.	8qgg/	.
.	(16dd\LL	.	16ff#\LL	.
.	32cc#\L	.	32ee\L	.
.	32dd\JJJ)	.	32ff#\JJJ	.
.	8ee\	.	8gg\	.
.	8qqdd/	.	8qff#/	.
.	(16cc#\LL	.	16ee\LL	.
.	32b\L	.	32dd\L	.
.	32cc#\JJJ)	.	32ee\JJJ	.
!	!	!	!LO:PB:g=original	!
=32	=32	=32	=32	=32
!	!LO:TX:t=P:problem:mixed beam	!	!	!
1ryy	8dd\L	.	8ff#\L	.
.	(8f#/	.	8a\J	.
.	8g/)	.	8b\L	.
.	(8e/J	.	8gg\J	.
.	8f#/L)	.	8a\L	.
.	8d/	.	8ff#\J	.
.	8e/	.	8g\L	.
.	8c#/J	.	8ee\J	.
=33	=33	=33	=33	=33
1ryy	4d/	.	16f#/LL	.
.	.	.	16d/	.
.	.	.	16a/	.
.	.	.	16f#/JJ	.
.	4f#/	.	16dd\LL	.
.	.	.	16ccn\	.
.	.	.	16b\	.
.	.	.	16a\JJ	.
.	4g/	.	16b\LL	.
.	.	.	16g\	.
.	.	.	16dd\	.
.	.	.	16b\JJ	.
.	4g/	.	16gg\LL	.
.	.	.	16ff#\	.
.	.	.	16ee\	.
.	.	.	16dd\JJ	.
=34	=34	=34	=34	=34
1ryy	4g/	.	4cc#\	.
!	!	!	!LO:TX:t=P:problem:mixed beam	!
.	8f#/L	.	8dd\L	.
!	!LO:N:vis=8	!	!	!
.	16r	.	16r	.
.	16d/Jk	.	16d/Jk	.
*	*	*	*Xtuplet	*
.	4d/	.	6f#/	.
!	!	!	!LO:N:vis=3	!
.	.	.	6A/	.
.	4c#/	.	.	.
.	.	.	6e/	.
=35	=35	=35	=35	=35
1ryy	2d/	.	2d/	.
!	!LO:TX:t=P:problem:fermata nad kreską taktową	!	!LO:TX:t=P:problem:fermata nad kreską taktową	!
.	2r	.	2r	.
==	==	==	==	==
*-	*-	*-	*-	*-
!!!system-decoration: [(s1,s2,s3)]
!!!RDF**kern: | = vertical stroke
!!!ENC: Krzysztof Stępień
!!!END: 2021-02-19
!!!ENC: Andrzej Kubiczek
!!!END: 2021-10-29
